X:1
T:60 Lessons for 2 Guitars, Op.168 - Joseph Küffner (1776 - 1856)
T:Leçon No.47
T:60 Lessons for 2 Guitars, Op.168 "à l'usage des commençants"
T:Joseph Küffner (1776 - 1856)
%%score { ( 1 2 ) ( 3 4 ) } { ( 5 6 ) ( 7 8 ) }
L:1/8
Q:1/4=120
M:3/4
K:A
V:1 treble-8 nm="Classical Guitar"
V:2 treble-8 
V:3 tab stafflines=6 strings=E2,A2,D3,G3,B3,E4 nostems nm="Guitare classique [Tablature]"
V:4 tab stafflines=6 strings=E2,A2,D3,G3,B3,E4 nostems 
V:5 treble-8 nm="Guitare classique"
V:6 treble-8 
V:7 tab stafflines=6 strings=E2,A2,D3,G3,B3,E4 nostems nm="Guitare classique [Tablature]"
V:8 tab stafflines=6 strings=E2,A2,D3,G3,B3,E4 nostems 
V:1
"_""^Ländler" z eaec'e | e'ec'eae | z ege d'2 | z eae c'2 | z eaec'e | e'ec'eae | z egd'bg | %7
 [ca]2 A,2 z2 ::"_" z egd' e2 | z eac' e2 | z BdgBd | z cea c'2 | z egd' e2 | z eac' e2 | %14
 z BdgBd | A,2 [cea]2 z2 :| %16
V:2
 A,4 z2 | x6 | E,4 z2 | A,4 z2 | A,4 z2 | x6 | E,4 z2 | x6 :: E,4 z2 | A,4 z2 | E,6 | A,6 | %12
 E,4 z2 | A,4 z2 | E,6 | x6 :| %16
V:3
 x !1!E !1!A !1!E !1!c !1!E | !1!e !1!E !1!c !1!E !1!A !1!E | x !1!E !1!G !1!E !1!d2 | %3
 x !1!E !1!A !1!E !1!c2 | x !1!E !1!A !1!E !1!c !1!E | !1!e !1!E !1!c !1!E !1!A !1!E | %6
 x !1!E !2!G !1!d !1!B !2!G | [!3!C!1!A]2 !5!A,,2 x2 :: x !1!E !2!G !1!d !1!E2 | %9
 x !1!E !2!A !1!c !1!E2 | x !3!B, !2!D !1!G !3!B, !2!D | x !2!C !1!E !1!A !1!c2 | %12
 x !1!E !2!G !1!d !1!E2 | x !1!E !2!A !1!c !1!E2 | x !3!B, !2!D !1!G !3!B, !2!D | %15
 !5!A,,2 [!3!C!2!E!1!A]2 x2 :| %16
V:4
 !5!A,,4 x2 | x6 | !6!E,,4 x2 | !5!A,,4 x2 | !5!A,,4 x2 | x6 | !6!E,,4 x2 | x6 :: !6!E,,4 x2 | %9
 !5!A,,4 x2 | !6!E,,6 | !5!A,,6 | !6!E,,4 x2 | !5!A,,4 x2 | !6!E,,6 | x6 :| %16
V:5
"_" z2 [Ace]2 [Ace]2 | z2 [Ace]2 [Ace]2 | z2 [Gde]2 [Gde]2 | z2 [Ace]2 [Ace]2 | z2 [Ace]2 [Ace]2 | %5
 z2 [Ace]2 [Ace]2 | z2 [Gde]2 [Gde]2 | A,2 [Ace]2 z2 ::"_" [E,GB]7/2 [E,GB]/ [E,GB]2 | %9
 [Ac] x !>!e4 | [GB]2 [Be]2 [GB]2 | [Ac]2 [ce]2 [Ac]2 | [E,GB]7/2 [E,GB]/ [E,GB]2 | [Ac] x !>!e4 | %14
 [GB]2 [Be]2 [GB]2 | A,2 [Ace]2 z2 :| %16
V:6
 A,6 | A,6 | E,6 | A,6 | A,6 | A,6 | E,6 | x6 :: x6 | A, z c4 | E,6 | A,6 | x6 | A, z c4 | E,6 | %15
 x6 :| %16
V:7
 x2 [!3!A,!2!C!1!E]2 [!3!A,!2!C!1!E]2 | x2 [!3!A,!2!C!1!E]2 [!3!A,!2!C!1!E]2 | %2
 x2 [!3!G,!2!D!1!E]2 [!3!G,!2!D!1!E]2 | x2 [!3!A,!2!C!1!E]2 [!3!A,!2!C!1!E]2 | %4
 x2 [!3!A,!2!C!1!E]2 [!3!A,!2!C!1!E]2 | x2 [!3!A,!2!C!1!E]2 [!3!A,!2!C!1!E]2 | %6
 x2 [!3!G,!2!D!1!E]2 [!3!G,!2!D!1!E]2 | !5!A,,2 [!3!A,!2!C!1!E]2 x2 :: %8
 [!6!E,,!3!G,!2!B,]7/2 [!6!E,,!3!G,!2!B,]/ [!6!E,,!3!G,!2!B,]2 | [!3!A,!2!C] x !>!!1!E4 | %10
 [!3!G,!2!B,]2 [!2!B,!1!E]2 [!3!G,!2!B,]2 | [!3!A,!2!C]2 [!2!C!1!E]2 [!3!A,!2!C]2 | %12
 [!6!E,,!3!G,!2!B,]7/2 [!6!E,,!3!G,!2!B,]/ [!6!E,,!3!G,!2!B,]2 | [!3!A,!2!C] x !>!!1!E4 | %14
 [!3!G,!2!B,]2 [!2!B,!1!E]2 [!3!G,!2!B,]2 | !5!A,,2 [!3!A,!2!C!1!E]2 x2 :| %16
V:8
 !5!A,,6 | !5!A,,6 | !6!E,,6 | !5!A,,6 | !5!A,,6 | !5!A,,6 | !6!E,,6 | x6 :: x6 | !5!A,, x !2!C4 | %10
 !6!E,,6 | !5!A,,6 | x6 | !5!A,, x !2!C4 | !6!E,,6 | x6 :| %16

